X: 8003
T:Valse Sauteuse de Rett
N:Not sure what sort of a waltz this is, in 4 ...
M:4/4
O:France
R:Bourr\'ee
K:G
B2G2 B2G2| c2A2 c2A2| B2G2 B2G2| A2F2 E2D2| \
B2G2 B2G2| c2A2 c2A2| B2G2 A2F2| G4 G4::
d4 d4| d2d2 d4| c2A2 B2G2| A2F2 E2D2| \
d4 d4 | d2d2 d2c2| B2G2 A2F2| G4 G4:|
